X:1
T: Susanne
C:Bruce Shawyer
R:Jig
Q:180
K:G
M:6/8
L:1/16
|:d2|d2B2G2 G2B2d2|e2c2G2 G2c2e2|d2B2G2 G2A2B2|A2F2D2 D6|
d2B2G2 G2B2d2|e2c2G2 c6|A2F2D2 D2E2F2|G6 G4:|
|:d2|d2g2b2 b2g2d2|e2g2c'2 c'2g2e2|d2g2b2 b2g2d2|a2f2d2 d6|
d2g2b2 b2g2d2|e2g2c'2 c'6|a2f2d2 d2e2f2|g6 g4:|
